X: 23335
T: Leinster Buttermilk
R: reel
M: 4/4
K: Dmajor
|:(3BcB AB dBAc|BFAF EFGA|(3BcB AB dBAB|~a3 g fd d2:|
|:a2 fd ad (3ddd|adfd Beef|1 a2 fd ad (3ddd|
gbag fd d2:|2 ~a3e fedB|ABde fd d2||

